X:1018
T:Vals efter Jöns Olsson
T:(SvL Skåne nr. 9)
R:Vals
Z:Patrik Månsson, 2009-01-15
O:Örkened, Skåne
S:efter [[!Jöns Olsson]]
S:Svenska Låtar Skåne
B:Svenska Låtar Skåne
M:3/4
L:1/8
K:D
|: A2 | dD FA de | f2 fe d2 | Ab aA ce | df Ad FA |
dD FA de | f2 fe d2 | cb aA ce | d4 :: fa | d'2 f2 a2 | ba gf g2 |
e2 ce ag | (fd) .A.d (fa) | d'2 f2 a2 | ba gf g2 | ce ba ge | d4 :|
(:musicend:)

[[!Ackord]]

(:music:)
